X:1
T:I’ll Praise Him While I Live
T:I’ll Praise Him While I Live
T:Hart Pease Danks
T:Frances Jane (Fanny) Crosby, 1898
T:Public Domain Courtesy of the Cyber Hymnal™
C:Hart Pease Danks
Z:Public Domain
Z:Courtesy of the Cyber Hymnal™
%%score ( 1 2 ) ( 3 4 )
L:1/8
Q:1/4=110
M:4/4
K:Eb
V:1 treble 
V:2 treble 
V:3 bass 
V:4 bass 
V:1
 E2 | [EG]2 [EG]2 [GB]2 [EG]2 | [DF]4 E2 E2 | [EF]2 [EF]2 [DF]2 ([EG][FA]) | [EG]6 [GB]2 | %5
w: 1.~No|o- ther name but|Je- sus, Be-|fore the throne I *|plead; No|
w: 2.~No|ear like that of|Je- sus Can|hear me when I *|pray; No|
w: 3.~No|words like those of|Je- sus Can|give me joy and *|rest; No|
w: 4.~For-|ev- er and for-|ev- er, While|all the ag- es *|roll, His|
 [Ge]2 [Ge]2 [Bd]2 [Ac]2 | [GB]4 [EG]2 [EG]2 | [DF]2 [DB]2 [Ec]3 [Fd] | B6 ||"^Refrain" B2 | %10
w: o- ther friend but|Je- sus, For|me can in- ter-|cede.||
w: hand like that of|Je- sus, Can|smooth life’s de- vious|way.|I’ll|
w: love like that of|Je- sus Can|make me tru- ly|blest.||
w: name shall be my|watch- word, His|glo- ry fill my|soul.||
 e6 ([Ad][Ac]) | [GB]2 ([EG]>[FA]) [GB]2 [^Fc]2 | [GB]2 [EG]2 E2 [EG]2 | F6 (G>F) | %14
w: ||||
w: praise Him *|while I * live; My|dai- ly song shall|be, I *|
w: ||||
w: ||||
 E2 E2 [EG]2 [GB]2 | [Ac]4 [GB]2 [^Fe]2 | [Ge]2 [EG]2 (cB) (AF) | [DF]4 E2 |] %18
w: ||||
w: love my bless- èd|Sav- ior, Be-|cause He first * loved *|me. *|
w: ||||
w: ||||
V:2
 E2 | x8 | x4 E2 E2 | x8 | x8 | x8 | x8 | x8 | (D2 E2 F2) || A2 | (G2 G2 A>A) x2 | x8 | x4 E2 x2 | %13
 (F2 E2 D2) D2 | E2 E2 x4 | x8 | x4 D2 D2 | x4 E2 |] %18
V:3
 [E,G,]2 | [E,B,]2 [E,B,]2 [E,B,]2 [E,B,]2 | A,4 [C,G,]2 [C,G,]2 | %3
w: ~|~ ~ ~ ~|~ ~ ~|
 [A,,C]2 [=A,,C]2 [B,,B,]2 [B,,B,]2 | [E,B,]6 [E,B,]2 | [E,B,]2 [E,B,]2 (A,B,) (CD) | %6
w: ~ ~ ~ ~|~ ~|~ ~ ~ * ~ *|
 [E,E]4 [E,B,]2 [E,B,]2 | [F,B,]2 [F,B,]2 [F,=A,]3 [F,A,] | B,6 || [D,B,]2 | %10
w: ~ ~ ~|~ ~ ~ ~|~|I’ll|
 [E,B,]2 [E,B,]2 [A,C]>[A,C] [A,D][A,E] | [E,E]2 [E,B,]>[E,B,] [E,B,]2 [E,=A,]2 | %12
w: praise Him, praise Him, while I|live, while I live; My|
 [E,B,]2 [E,B,]2 [G,B,]2 [E,B,]2 | [D,B,]2 [C,=A,]2 [B,,B,]2 [B,,_A,]2 | %14
w: song, my dai- ly|song shall be, *|
 [E,G,]2 [E,G,]2 [E,B,]2 [E,E]2 | [A,E]4 [E,E]2 [C,=A,]2 | [B,,B,]2 [B,,B,]2 [B,,A,]2 (F,A,) | %17
w: |||
 [B,,A,]4 [E,G,]2 |] %18
w: |
V:4
 x2 | x8 | (B,,2 =B,,2) x4 | x8 | x8 | x4 E,2 E,2 | x8 | x8 | (B,,2 C,2 D,2) || x2 | x8 | x8 | x8 | %13
 x8 | x8 | x8 | x6 B,,2 | x6 |] %18

